X: 1
T: Fisherman's Reel
T: 5 x 32R 5C (Sue Petyt, Jane Gamon)  (music based on recording)
T: Note:  recommended tune is "The Cod End" by Gordon Robertson
P: Pinafore 1
C: from
C: arr. T. Traub 6-14-2005
Z: Contributed 2016-02-19 15:18:58 by Richard Burton richard_burton@btopenworld.com
K: C
L: 1/8
M: 4/4
R: reel
|: C>E|"C"G2 G2 G2 CE | G^FGA G2 C2| "F"A2 cA F2 A2| "C"G2 E4 CE|G2 G2 G2 CE|G^FGA G2 E2|"Dm"F2 D2 "D7"E2 C2| "G"D2 G,4 z2|
"C"G2 G2 G2 AB|c2 B2 A2 G2|"F"A2 A2 A2 Bc|"G"d2 c2 B2 A2| "C"G2 G2 G2 AB|c2 B2 A2 G2|"F"AcBA "G"GFED|"C"E2 C4 :|

